X:3995
T:Marco's Reel
O:england
R:reel
D:Four Men and a Dog: Barking Mad
M:C|
K:D
~F3E FEDF|~A3B AGFA|dFAd FAdA|cB~B2 cB~B2|
~E3D EFGA|cE~E2 c2cB|A2cB AGFE|1 cdBc ABGA:|2 D2CE D4||
|:~f3e fedf|edce dAFA|dFAd FAdA|cB~B2 cB~B2|
[1 ~g3f gfeg|fedf edcB|ABcd edcB|cdBc ABGA:|
[2 ~E3D EFGA|cE~E2 c2cB|A2cB AGFE|D2CE D4||
"variations"
|:~F3E FEDF|A2GB AGFA|dFAd FAdA|cBAB cBAB|
~E3F GFGA|cB~B2 c2cB|1 ABcB AGFE|DABG ABGA:|2 A2ed cABc|dfec d2de||
|:~f3e fedf|edce d2 (3ABc|dFAd FAdA|cBAB cBAB|
[1 ~g3f gfeg|fedf edcB|ABcd efdc|d2Bd ABde:|
[2 ~E3F GFGA|cB~B2 c2cB|A2ed cABc|dfec d2AG||


